X: 29917
T: O'Shaughnessy's
R: reel
M: 4/4
K: Gmajor
BGGG ABce|dggg agfe|dggg fgab|c'bag fedc|
BGGG ABce|dggg agfe|dggf dedc|1 BG (3AcA G3A:|2 BG (3AcA G3B||
|:cBAG FGAF|DGGF DGGB|cBAG FGAB|cedc BGGB|
cBAG FGAF|DGGG AGFE|DGGF DEDc|BGAF G4:|

